icons/desktop/16/svg/moon-16.svg

<svg width="16" height="16" viewBox="0 0 16 16" fill="none" xmlns="http://www.w3.org/2000/svg">
<path fill-rule="evenodd" clip-rule="evenodd" d="M6.97578 1.58818C7.40078 1.46918 7.84431 1.58103 8.16231 1.88603C8.48213 2.19397 8.61283 2.63484 8.51094 3.06669C8.41794 3.46168 8.37129 3.86592 8.37129 4.26591C8.37129 6.82591 10.1923 9.03105 12.7023 9.51005C13.0692 9.59201 13.4245 9.63394 13.7814 9.63994C14.2243 9.64706 14.6201 9.88201 14.84 10.2688C15.058 10.6517 15.0559 11.1086 14.8361 11.4895C14.5662 11.9584 14.2402 12.3926 13.8684 12.7835C12.5684 14.2115 10.7639 15.0013 8.84395 15.0013L8.84297 15.0003C8.6 15.0003 8.35457 14.9872 8.1086 14.9622C4.8078 14.617 2.18596 11.8534 2.00996 8.53251C1.84018 5.3168 3.8821 2.46224 6.97578 1.58818ZM6.96114 3.16923C4.78515 3.98024 3.38301 6.09242 3.50801 8.45341C3.64323 11.0022 5.7321 13.2059 8.26387 13.47C9.97277 13.655 11.6177 13.0269 12.7717 11.762C12.9657 11.557 13.1411 11.3405 13.2971 11.1155C12.9941 11.0905 12.6927 11.0448 12.3977 10.9788C9.20487 10.3686 6.87129 7.54179 6.87129 4.26494C6.87129 3.90004 6.90115 3.53316 6.96211 3.16826L6.96114 3.16923Z" fill="black"/>
</svg>

<!-- This Source Code Form is subject to the terms of the Mozilla Public
   - License, v. 2.0. If a copy of the MPL was not distributed with this
   - file, You can obtain one at http://mozilla.org/MPL/2.0/. -->
<svg xmlns="http://www.w3.org/2000/svg" width="16" height="16" fill="context-fill" fill-opacity="context-fill-opacity" viewBox="0 0 16 16">
    <path fill-rule="evenodd" d="M6.976 1.588a1.22 1.22 0 0 1 1.186.298c.32.308.45.749.349 1.18-.093.396-.14.8-.14 1.2a5.34 5.34 0 0 0 4.331 5.244c.367.082.723.124 1.08.13a1.23 1.23 0 0 1 1.058.629c.218.383.216.84-.004 1.22-.27.47-.596.904-.968 1.294a6.75 6.75 0 0 1-5.024 2.218h-.001a7 7 0 0 1-.734-.039c-3.301-.345-5.923-3.109-6.099-6.43a6.8 6.8 0 0 1 4.966-6.944M6.96 3.17a5.31 5.31 0 0 0-3.453 5.284c.135 2.55 2.224 4.753 4.756 5.017a5.28 5.28 0 0 0 4.508-1.708q.292-.308.525-.646a7 7 0 0 1-.9-.137c-3.192-.61-5.526-3.437-5.526-6.714q0-.549.091-1.097z" clip-rule="evenodd" />
</svg>
